packages/ffe-icons/icons/open/300/sm/camera_front.svg

<svg xmlns="http://www.w3.org/2000/svg" height="20" viewBox="0 -960 960 960" width="20"><path d="M423.849-178.001H238.001q-11.05 0-18.525-7.418-7.475-7.418-7.475-18.384 0-10.966 7.475-18.581t18.525-7.615h185.848l-45.925-45.925q-8.307-8.307-8-17.884.308-9.576 9-18.268 8.692-8.693 18.577-8.693 9.884 0 18.576 8.693l85.769 85.769q9.846 9.482 9.846 22.125t-9.846 22.489l-85.769 85.77q-8.307 8.307-18.384 8.5-10.077.192-18.769-8.5-8.692-8.693-8.692-19.077 0-10.384 8.692-19.076l44.925-43.925Zm-211.848-601.69q0-27.008 18.65-45.658 18.65-18.65 45.658-18.65h407.382q27.008 0 45.658 18.65 18.65 18.65 18.65 45.658v465.692q0 11.049-7.419 18.524Q733.162-288 722.196-288q-10.966 0-18.581-7.475T696-313.999v-34.31q-47.846-33.922-104.539-51.422-56.692-17.5-111.461-17.5t-111.461 17q-56.693 17-104.539 51.922v34.31q0 11.049-7.418 18.524Q249.164-288 238.198-288q-10.966 0-18.581-7.475-7.616-7.475-7.616-18.524v-465.692ZM264-411.23q48.461-27.846 104.692-42.923Q424.923-469.23 480-469.23q55.077 0 111.308 15.577Q647.539-438.076 696-411.23v-368.461q0-4.616-3.846-8.463-3.847-3.846-8.463-3.846H276.309q-4.616 0-8.463 3.846-3.846 3.847-3.846 8.463v368.461Zm337.999 233.229q-11.049 0-18.524-7.418Q576-192.837 576-203.803q0-10.966 7.475-18.581t18.524-7.615h120q11.05 0 18.525 7.418 7.475 7.418 7.475 18.384 0 10.966-7.475 18.581t-18.525 7.615h-120ZM480-417.231Zm.045-87.538q-45.814 0-77.929-32.07t-32.115-77.884q0-45.814 32.07-77.93 32.07-32.115 77.884-32.115t77.929 32.07q32.115 32.07 32.115 77.884t-32.07 77.93q-32.07 32.115-77.884 32.115ZM480-556.768q24.246 0 41.124-16.877 16.877-16.877 16.877-41.124 0-24.246-16.877-41.123-16.878-16.877-41.124-16.877-24.246 0-41.124 16.877-16.877 16.877-16.877 41.123 0 24.247 16.877 41.124 16.878 16.877 41.124 16.877Zm0-58.001Z"/></svg>

<svg xmlns="http://www.w3.org/2000/svg" height="20" viewBox="0 -960 960 960" width="20"><path d="M423.85-178H238q-11.05 0-18.52-7.42-7.48-7.42-7.48-18.38 0-10.97 7.48-18.58Q226.95-230 238-230h185.85l-45.93-45.92q-8.3-8.31-8-17.89.31-9.57 9-18.27 8.7-8.69 18.58-8.69 9.89 0 18.58 8.69l85.77 85.77q9.84 9.48 9.84 22.13 0 12.64-9.84 22.49l-85.77 85.77q-8.31 8.3-18.39 8.5-10.07.19-18.77-8.5-8.69-8.7-8.69-19.08 0-10.38 8.69-19.08L423.85-178ZM212-779.69q0-27.01 18.65-45.66Q249.3-844 276.31-844h407.38q27.01 0 45.66 18.65Q748-806.7 748-779.69V-314q0 11.05-7.42 18.53-7.42 7.47-18.38 7.47-10.97 0-18.58-7.47Q696-302.95 696-314v-34.31q-47.85-33.92-104.54-51.42-56.69-17.5-111.46-17.5-54.77 0-111.46 17-56.69 17-104.54 51.92V-314q0 11.05-7.42 18.53-7.42 7.47-18.38 7.47-10.97 0-18.58-7.47Q212-302.95 212-314v-465.69Zm52 368.46q48.46-27.85 104.69-42.92 56.23-15.08 111.31-15.08 55.08 0 111.31 15.58 56.23 15.57 104.69 42.42v-368.46q0-4.62-3.85-8.46-3.84-3.85-8.46-3.85H276.31q-4.62 0-8.46 3.85-3.85 3.84-3.85 8.46v368.46ZM602-178q-11.05 0-18.53-7.42-7.47-7.42-7.47-18.38 0-10.97 7.47-18.58Q590.95-230 602-230h120q11.05 0 18.52 7.42 7.48 7.42 7.48 18.38 0 10.97-7.48 18.58Q733.05-178 722-178H602ZM480-417.23Zm.05-87.54q-45.82 0-77.93-32.07Q370-568.91 370-614.72q0-45.82 32.07-77.93 32.07-32.12 77.88-32.12 45.82 0 77.93 32.07Q590-660.63 590-614.81q0 45.81-32.07 77.93-32.07 32.11-77.88 32.11Zm-.05-52q24.25 0 41.12-16.87Q538-590.52 538-614.77q0-24.25-16.88-41.12-16.87-16.88-41.12-16.88-24.25 0-41.12 16.88Q422-639.02 422-614.77q0 24.25 16.88 41.13 16.87 16.87 41.12 16.87Zm0-58Z"/></svg>
